dist/svg/api.svg

<!-- Generated by Trend Micro Style Portal -->
<svg version="1.1" xmlns="http://www.w3.org/2000/svg" width="16" height="16" viewBox="0 0 16 16">
  <title>api</title>
  <path fill="rgb(34,34,34)" d="M12.5 4.555h1v7h-1v-7zM16 4v8c0 1.657-1.343 3-3 3h-10c-1.657 0-3-1.343-3-3v-8c0-1.657 1.343-3 3-3h10c1.657 0 3 1.343 3 3zM15 4c0-1.105-0.895-2-2-2h-10c-1.105 0-2 0.895-2 2v8c0 1.105 0.895 2 2 2h10c1.105 0 2-0.895 2-2v-8zM5.5 4.555h1v7h-1v-3h-2v3h-1v-7h3zM5.5 5.555h-2v2h2v-2zM8.5 4.555h3v4h-3v3h-1v-7h1zM8.5 5.555v2h2v-2h-2z"></path>
</svg>

<svg width="16" height="16" viewBox="0 0 16 16" fill="rgb(34, 34, 34)" xmlns="http://www.w3.org/2000/svg"><title>API</title><path d="M12.5 4.555H13.5V11.555H12.5V4.555ZM16 4V12C16 13.657 14.657 15 13 15H3C1.343 15 0 13.657 0 12V4C0 2.343 1.343 1 3 1H13C14.657 1 16 2.343 16 4ZM15 4C15 2.895 14.105 2 13 2H3C1.895 2 1 2.895 1 4V12C1 13.105 1.895 14 3 14H13C14.105 14 15 13.105 15 12V4ZM5.5 4.555H6.5V11.555H5.5V8.555H3.5V11.555H2.5V4.555H5.5ZM5.5 5.555H3.5V7.555H5.5V5.555ZM8.5 4.555H11.5V8.555H8.5V11.555H7.5V4.555H8.5ZM8.5 5.555V7.555H10.5V5.555H8.5Z" fill="rgb(34, 34, 34)" fill-opacity="1.00"/></svg>
